X:190
T:Pride of Kildare - Woodrich
%%VWML:SBG-1-2-605-0
F:http://www.vwml.org/record/SBG/1/2/605
Z:Original Sibelius transcriptions by M. & S. Graebe
M:3/4
I:linebreak $
K:F
V:1 treble nm="P1"
V:1
 C2 | A3 GBA | (GF) D3 F | CF F2 G2 | A6 FG | A3 GBA | (GF) D3 D |$ C2 F2 G G | F4 AB | c3 Adc | %10
 (cA) F2 AB | d2 c2 AF | G4 FG |$ A2 G2 BA | GF D2 FD | CF G2 G2 | F4 AB | c3 Adc | (cA) F2 dd |$ %19
 (cA) F2 cc | d2 c2 F F | G4 FG | A3 GBA | GF D2 FD | C2 F2 G G | F4 x2 | %26

